!!!COM: Bach, Johann Sebastian
!!!CDT: 1685/3//-1750/7/28/
!!!OTL@@DE: Wer nur den lieben Gott laesst walten
!!!AGN: 4-Part Chorale
!!!SCT: Erk 146
!!!SCT: BWV 434
!!!YEC: Copyright 2003 by Craig Stuart Sapp
!!!license: GNU General Public License (http://www.gnu.org/copyleft/gpl.html)
!!!SMA: 371 Bach Chorales, edited by Ludwig Erk, C.F. Peters
!!!PDT: 1850, 1865
!!!ONB: Harmony and Root analysis done manually by Craig Sapp
**kern	**kern	**kern	**kern	**root	**harm	**kern
!bass	!tenor	!alto	!soprno	!	!	!
*Iorgan	*Iorgan	*Iorgan	*Iorgan	*Iorgan	*	*Iorgan
*clefF2	*clefF2	*clefG2	*clefG2	*	*	*
*k[]	*k[]	*k[]	*k[]	*k[]	*k[]	*k[]
*a:	*a:	*a:	*a:	*a:	*a:	*a:
*M4/4	*M4/4	*M4/4	*M4/4	*M4/4	*M4/4	*M4/4
*met(C)	*met(C)	*met(C)	*met(C)	*met(C)	*met(C)	*met(C)
*MM60	*MM60	*MM60	*MM60	*MM60	*MM60	*MM60
*>[A,A,B]	*>[A,A,B]	*>[A,A,B]	*>[A,A,B]	*>[A,A,B]	*>[A,A,B]	*>[A,A,B]
*>A	*>A	*>A	*>A	*>A	*>A	*>A
4A	8A	8c	4e	4AA	i	4A 4cc 4ee
.	8B	8d	.	.	.	.
=1	=1	=1	=1	=1	=1	=1
4C	8c	4e	4a	4AA	ib	4a 4C 4ee
.	8B	.	.	.	.	.
4E	8A	4e	4b	4EE	V	4E 4g# 4b
.	8G#	.	.	.	.	.
4AA	4A	8e	4cc	4AA	i	4A 4cc 4ee
.	.	8f#	.	.	.	.
4BB	4D	4g#	4b	4GG#	viiob	4g# 4B 4dd
=2	=2	=2	=2	=2	=2	=2
4C	8E	8a	4a	4AA	ib	4a 4C 4ee
.	8e	8gn	.	.	.	.
4D	8d	4f	4b	4BB	iiob	4b 4D 4ff
.	8c	.	.	.	.	.
2E	4.B	2e	4.g#	2EE	V	2E 2g# 2b
.	8A	.	8f#	.	.	.
=3	=3	=3	=3	=3	=3	=3
4E;	4G#;	4B;	4e;	4EE;	V;	4E; 4g#; 4b;
4E	4B	4e	4gn	4EE	v	4E 4g 4b
4A	4c	4e	4g	4AA	i7	4A 4cc 4ee 4gg#
8B	8d	4d	4f	4BB	iio	4B 4dd 4ff
8A	8c	.	.	.	.	.
=4	=4	=4	=4	=4	=4	=4
8G#	8B	8d	4e	8EE	V7b	8e 8G# 8b 8dd
8Gn	8A	8c#	.	8AA	V7c/IV	8a 8cc# 8E 8gg
8F#	8A	8d	4a	8DD	IVb	8d 8F# 8a
8Fn	8B	8d#	.	8DD#	Fr	8D# 8f## 8a#
8E	8cn	8e	8a	8AA	ic	8a 8cc 8E
8D#	[8B	8f#	8b	8BB	Vb/V	8b 8D# 8ff#
4E	8B]	4e	4g#	4EE	V7	4E 4g# 4b 4dd
.	16c	.	.	.	.	.
.	16d	.	.	.	.	.
=5	=5	=5	=5	=5	=5	=5
2.AA;	2.c;	2.e;	2.a;	2.AA;	i;	2.A; 2.cc; 2.ee;
=:|!	=:|!	=:|!	=:|!	=:|!	=:|!	=:|!
*>B	*>B	*>B	*>B	*>B	*>B	*>B
4E	4e	4g#	4b	4EE	V	4E 4g# 4b
=6	=6	=6	=6	=6	=6	=6
4A	4e	4a	4cc	4AA	i	4A 4cc 4ee
4B	4d	4gn	4dd	4GG	-VII	4G 4b 4dd
8c	4c	4g	4ee	4CC	III	4C 4e 4g
8B	.	.	.	.	.	.
8A	4c	4a	4ee	4AA	i	4A 4cc 4ee
8G	.	.	.	.	.	.
=7	=7	=7	=7	=7	=7	=7
8F	4c	4a	8dd	4DD	iv7	4D 4f 4a 4cc
8D	.	.	16ee	.	.	.
.	.	.	16ff	.	.	.
4G	4B	8g	4dd	4GG	V7/III	4G 4b 4dd 4ff
.	.	8f	.	.	.	.
4C;	4G;	4e;	4cc;	4CC;	III;	4C; 4e; 4g;
4C#	4A	4e	4ee	4AA	I	4A 4cc# 4ee
=8	=8	=8	=8	=8	=8	=8
8D	8A	8f#	4dd	8DD	IV	8D 8f# 8a
8E	8e	8g#	.	8EE	V7	8E 8g# 8b 8dd
8F	8e	4a	4cc	8FF	vi7	8F 8a- 8cc 8ee
8F#	8e-	.	.	8FF#	viio/-VII	8F# 8a 8cc
8G	4d	8gn	4b	8GG	-VII	8G 8b 8dd
8G#	.	8fn	.	8GG#	viio7	8G# 8b 8dd 8ff
4A	8c	4e	8a	4AA	i	4A 4cc 4ee
.	8B	.	8b	.	.	.
=9	=9	=9	=9	=9	=9	=9
4D#	4A	4f#	8cc	4DD#	viio7/V	4D# 4f# 4a 4cc#
.	.	.	8b	.	.	.
4E	4G#	8e	4b	4EE	V7	4E 4g# 4b 4dd
.	.	8d	.	.	.	.
4AA;	4E;	4c#;	4a;	4AA;	I;	4A; 4cc#; 4ee;
==	==	==	==	==	==	==
*-	*-	*-	*-	*-	*-	*-
